styles/5/Numix/64/places/pink-folder-hdd.svg

<?xml version="1.0" encoding="UTF-8" standalone="no"?>
<!-- Created with Inkscape (http://www.inkscape.org/) -->

<svg
   xmlns:dc="http://purl.org/dc/elements/1.1/"
   xmlns:cc="http://creativecommons.org/ns#"
   xmlns:rdf="http://www.w3.org/1999/02/22-rdf-syntax-ns#"
   xmlns:svg="http://www.w3.org/2000/svg"
   xmlns="http://www.w3.org/2000/svg"
   xmlns:xlink="http://www.w3.org/1999/xlink"
   xmlns:sodipodi="http://sodipodi.sourceforge.net/DTD/sodipodi-0.dtd"
   xmlns:inkscape="http://www.inkscape.org/namespaces/inkscape"
   width="64"
   height="64"
   id="svg2"
   version="1.1"
   inkscape:version="0.91 r"
   sodipodi:docname="pink-folder-hdd.svg"
   inkscape:export-filename="/media/Data/Main/Visuals/Icons/Numix/Desktop/repos/numix-wiki/Gjorgi/Numix-folders/48/New/folder-144.png"
   inkscape:export-xdpi="270"
   inkscape:export-ydpi="270">
  <defs
     id="defs4">
    <linearGradient
       id="linearGradient3886-9">
      <stop
         style="stop-color:#000000;stop-opacity:1;"
         offset="0"
         id="stop3888-3" />
      <stop
         style="stop-color:#000000;stop-opacity:0.19607843;"
         offset="1"
         id="stop3890-7" />
    </linearGradient>
    <radialGradient
       r="24"
       fy="40.5"
       fx="24"
       cy="40.5"
       cx="24"
       gradientTransform="matrix(1.6666667,0,0,0.2777777,-8,1030.4456)"
       gradientUnits="userSpaceOnUse"
       id="radialGradient3193"
       xlink:href="#linearGradient3886-9"
       inkscape:collect="always" />
  </defs>
  <sodipodi:namedview
     id="base"
     pagecolor="#ffffff"
     bordercolor="#666666"
     borderopacity="1.0"
     inkscape:pageopacity="0.0"
     inkscape:pageshadow="2"
     inkscape:zoom="7.4607353"
     inkscape:cx="25.834485"
     inkscape:cy="27.221329"
     inkscape:document-units="px"
     inkscape:current-layer="layer1"
     showgrid="true"
     inkscape:window-width="1280"
     inkscape:window-height="998"
     inkscape:window-x="0"
     inkscape:window-y="0"
     inkscape:window-maximized="1"
     showguides="true"
     inkscape:guide-bbox="true">
    <inkscape:grid
       type="xygrid"
       id="grid2985"
       empspacing="5"
       visible="true"
       enabled="true"
       snapvisiblegridlinesonly="true" />
  </sodipodi:namedview>
  <metadata
     id="metadata7">
    <rdf:RDF>
      <cc:Work
         rdf:about="">
        <dc:format>image/svg+xml</dc:format>
        <dc:type
           rdf:resource="http://purl.org/dc/dcmitype/StillImage" />
        <dc:title />
      </cc:Work>
    </rdf:RDF>
  </metadata>
  <g
     inkscape:label="Layer 1"
     inkscape:groupmode="layer"
     id="layer1"
     transform="translate(0,-988.3622)">
    <path
       inkscape:connector-curvature="0"
       style="opacity:0.1;fill:url(#radialGradient3193);fill-opacity:1;stroke:none"
       d="m 32,1035.0288 c -13.102065,0 -24.7039604,1.0442 -32,2.6668 l 0,8 c 7.2960396,1.6224 18.897935,2.6666 32,2.6666 13.102066,0 24.70396,-1.0442 32,-2.6666 l 0,-8 c -7.29604,-1.6226 -18.897934,-2.6668 -32,-2.6668 z"
       id="path3868" />
    <rect
       style="fill:#ec407a;fill-opacity:1;stroke:none"
       id="rect2987"
       width="60"
       height="41.999908"
       x="2"
       y="1002.3622"
       rx="6.521739"
       ry="6.5624819" />
    <path
       style="opacity:0.2;fill:#ffffff;fill-opacity:1;stroke:none"
       d="M 8.5217392,1001.6956 C 4.9086956,1001.6956 2,1004.6688 2,1008.3622 l 0,2.6666 c 0,-3.6932 2.9086956,-6.6666 6.5217392,-6.6666 l 46.9565208,0 c 3.613044,0 6.52174,2.9734 6.52174,6.6666 l 0,-2.6666 c 0,-3.6934 -2.908696,-6.6666 -6.52174,-6.6666 l -46.9565208,0 z"
       id="rect3797"
       inkscape:connector-curvature="0" />
    <path
       style="fill:#f06292;fill-opacity:1;stroke:none"
       d="m 8.5217392,1012.3622 10.4347828,0 c 14.347826,-1.3334 11.73913,-16 20.869564,-16 l 15.652174,0 c 3.613044,0 6.52174,2.9734 6.52174,6.6666 l 0,34.6668 c 0,3.6932 -2.908696,6.6666 -6.52174,6.6666 l -46.9565208,0 C 4.9086956,1044.3622 2,1041.3888 2,1037.6956 l 0,-18.6668 c 0,-4 2.6086956,-6.6666 6.5217392,-6.6666 z"
       id="rect3776"
       inkscape:connector-curvature="0"
       sodipodi:nodetypes="cccsssssscc" />
    <path
       id="path6198"
       d="m 12.25,1019.3622 c -1.2465,0 -2.25,1.0036 -2.25,2.25 l 0,13.5 c 0,1.2466 1.0035,2.25 2.25,2.25 l 11.5,0 c 1.246498,0 2.25,-1.0034 2.25,-2.25 l 0,-13.5 c 0,-1.2464 -1.003502,-2.25 -2.25,-2.25 l -11.5,0 z m 0.75,2 c 0.552285,0 1,0.4477 1,1 0,0.5523 -0.447715,1 -1,1 -0.552285,0 -1,-0.4477 -1,-1 0,-0.5523 0.447715,-1 1,-1 z m 10,0 c 0.552285,0 1,0.4477 1,1 0,0.5523 -0.447715,1 -1,1 -0.552285,0 -1,-0.4477 -1,-1 0,-0.5523 0.447715,-1 1,-1 z m -5,1 c 1.656854,0 3,1.3431 3,3 0,1.6569 -1.343146,3 -3,3 -1.656854,0 -3,-1.3431 -3,-3 0,-1.6569 1.343146,-3 3,-3 z m 0,2 c -0.552285,0 -1,0.4477 -1,1 0,0.5523 0.447715,1 1,1 0.552285,0 1,-0.4477 1,-1 0,-0.5523 -0.447715,-1 -1,-1 z m -5,3 c 0.552285,0 1,0.4477 1,1 0,0.5523 -0.447715,1 -1,1 -0.552285,0 -1,-0.4477 -1,-1 0,-0.5523 0.447715,-1 1,-1 z m 10,0 c 0.552285,0 1,0.4477 1,1 0,0.5523 -0.447715,1 -1,1 -0.552285,0 -1,-0.4477 -1,-1 0,-0.5523 0.447715,-1 1,-1 z m -10,6 10,0 c 0.554,0 1,0.446 1,1 0,0.554 -0.446,1 -1,1 l -10,0 c -0.554,0 -1,-0.446 -1,-1 0,-0.554 0.446,-1 1,-1 z"
       style="fill:#000000;fill-opacity:0.09803922"
       inkscape:connector-curvature="0" />
    <path
       style="fill:#fff8e1;fill-opacity:1"
       d="M 12.25 30 C 11.0035 30 10 31.0036 10 32.25 L 10 45.75 C 10 46.9966 11.0035 48 12.25 48 L 23.75 48 C 24.996498 48 26 46.9966 26 45.75 L 26 32.25 C 26 31.0036 24.996498 30 23.75 30 L 12.25 30 z M 13 32 C 13.552285 32 14 32.447715 14 33 C 14 33.552285 13.552285 34 13 34 C 12.447715 34 12 33.552285 12 33 C 12 32.447715 12.447715 32 13 32 z M 23 32 C 23.552285 32 24 32.447715 24 33 C 24 33.552285 23.552285 34 23 34 C 22.447715 34 22 33.552285 22 33 C 22 32.447715 22.447715 32 23 32 z M 18 33 C 19.656854 33 21 34.343146 21 36 C 21 37.656854 19.656854 39 18 39 C 16.343146 39 15 37.656854 15 36 C 15 34.343146 16.343146 33 18 33 z M 18 35 C 17.447715 35 17 35.447715 17 36 C 17 36.552285 17.447715 37 18 37 C 18.552285 37 19 36.552285 19 36 C 19 35.447715 18.552285 35 18 35 z M 13 38 C 13.552285 38 14 38.447715 14 39 C 14 39.552285 13.552285 40 13 40 C 12.447715 40 12 39.552285 12 39 C 12 38.447715 12.447715 38 13 38 z M 23 38 C 23.552285 38 24 38.447715 24 39 C 24 39.552285 23.552285 40 23 40 C 22.447715 40 22 39.552285 22 39 C 22 38.447715 22.447715 38 23 38 z M 13 44 L 23 44 C 23.554 44 24 44.446 24 45 C 24 45.554 23.554 46 23 46 L 13 46 C 12.446 46 12 45.554 12 45 C 12 44.446 12.446 44 13 44 z "
       transform="translate(0,988.3622)"
       id="rect3007" />
    <path
       style="opacity:0.15;fill:#000000;fill-opacity:1;stroke:none"
       d="m 2,1035.0288 0,2.6668 c 0,3.6932 2.9086956,6.6666 6.5217392,6.6666 l 46.9565208,0 c 3.613044,0 6.52174,-2.9734 6.52174,-6.6666 l 0,-2.6668 c 0,3.6934 -2.908696,7.3334 -6.52174,7.3334 l -46.9565208,0 C 4.9086956,1042.3622 2,1038.7222 2,1035.0288 z"
       id="path3786"
       inkscape:connector-curvature="0"
       sodipodi:nodetypes="csssscssc" />
  </g>
</svg>

<!-- Created with Inkscape (http://www.inkscape.org/) -->
<svg xmlns="http://www.w3.org/2000/svg" viewBox="0 0 64 64">
 <defs>
  <radialGradient r="24" cy="40.5" cx="24" gradientTransform="matrix(1.6666667,0,0,0.2777777,-8,1030.4456)" gradientUnits="userSpaceOnUse" id="radialGradient3193">
   <stop style="stop-color:#000;stop-opacity:1"/>
   <stop offset="1" style="stop-color:#000;stop-opacity:0.196"/>
  </radialGradient>
 </defs>
 <g transform="translate(0,-988.3622)">
  <path d="m 32 1035.03 c -13.1 0 -24.704 1.044 -32 2.667 l 0 8 c 7.296 1.622 18.898 2.667 32 2.667 13.1 0 24.704 -1.044 32 -2.667 l 0 -8 c -7.296 -1.623 -18.898 -2.667 -32 -2.667 z" style="fill:url(#radialGradient3193);opacity:0.1;fill-opacity:1;stroke:none"/>
  <rect width="60" height="42" x="2" y="1002.36" rx="6.522" ry="6.562" style="fill:#ec407a;fill-opacity:1;stroke:none"/>
  <path d="m 8.522 1001.7 c -3.613 0 -6.522 2.973 -6.522 6.667 l 0 2.667 c 0 -3.693 2.909 -6.667 6.522 -6.667 l 46.957 0 c 3.613 0 6.522 2.973 6.522 6.667 l 0 -2.667 c 0 -3.693 -2.909 -6.667 -6.522 -6.667 l -46.957 0 z" style="fill:#fff;opacity:0.2;fill-opacity:1;stroke:none"/>
  <path d="m 8.522 1012.36 10.435 0 c 14.348 -1.333 11.739 -16 20.87 -16 l 15.652 0 c 3.613 0 6.522 2.973 6.522 6.667 l 0 34.667 c 0 3.693 -2.909 6.667 -6.522 6.667 l -46.957 0 c -3.613 0 -6.522 -2.973 -6.522 -6.667 l 0 -18.667 c 0 -4 2.609 -6.667 6.522 -6.667 z" style="fill:#f06292;fill-opacity:1;stroke:none"/>
  <path d="m 12.25 1019.36 c -1.246 0 -2.25 1 -2.25 2.25 l 0 13.5 c 0 1.247 1 2.25 2.25 2.25 l 11.5 0 c 1.246 0 2.25 -1 2.25 -2.25 l 0 -13.5 c 0 -1.246 -1 -2.25 -2.25 -2.25 l -11.5 0 z m 0.75 2 c 0.552 0 1 0.448 1 1 0 0.552 -0.448 1 -1 1 -0.552 0 -1 -0.448 -1 -1 0 -0.552 0.448 -1 1 -1 z m 10 0 c 0.552 0 1 0.448 1 1 0 0.552 -0.448 1 -1 1 -0.552 0 -1 -0.448 -1 -1 0 -0.552 0.448 -1 1 -1 z m -5 1 c 1.657 0 3 1.343 3 3 0 1.657 -1.343 3 -3 3 -1.657 0 -3 -1.343 -3 -3 0 -1.657 1.343 -3 3 -3 z m 0 2 c -0.552 0 -1 0.448 -1 1 0 0.552 0.448 1 1 1 0.552 0 1 -0.448 1 -1 0 -0.552 -0.448 -1 -1 -1 z m -5 3 c 0.552 0 1 0.448 1 1 0 0.552 -0.448 1 -1 1 -0.552 0 -1 -0.448 -1 -1 0 -0.552 0.448 -1 1 -1 z m 10 0 c 0.552 0 1 0.448 1 1 0 0.552 -0.448 1 -1 1 -0.552 0 -1 -0.448 -1 -1 0 -0.552 0.448 -1 1 -1 z m -10 6 10 0 c 0.554 0 1 0.446 1 1 0 0.554 -0.446 1 -1 1 l -10 0 c -0.554 0 -1 -0.446 -1 -1 0 -0.554 0.446 -1 1 -1 z" style="fill:#000;fill-opacity:0.098"/>
  <path d="m 12.25 30 c -1.246 0 -2.25 1 -2.25 2.25 l 0 13.5 c 0 1.247 1 2.25 2.25 2.25 l 11.5 0 c 1.246 0 2.25 -1 2.25 -2.25 l 0 -13.5 c 0 -1.246 -1 -2.25 -2.25 -2.25 l -11.5 0 z m 0.75 2 c 0.552 0 1 0.448 1 1 c 0 0.552 -0.448 1 -1 1 c -0.552 0 -1 -0.448 -1 -1 c 0 -0.552 0.448 -1 1 -1 z m 10 0 c 0.552 0 1 0.448 1 1 c 0 0.552 -0.448 1 -1 1 c -0.552 0 -1 -0.448 -1 -1 c 0 -0.552 0.448 -1 1 -1 z m -5 1 c 1.657 0 3 1.343 3 3 c 0 1.657 -1.343 3 -3 3 c -1.657 0 -3 -1.343 -3 -3 c 0 -1.657 1.343 -3 3 -3 z m 0 2 c -0.552 0 -1 0.448 -1 1 c 0 0.552 0.448 1 1 1 c 0.552 0 1 -0.448 1 -1 c 0 -0.552 -0.448 -1 -1 -1 z m -5 3 c 0.552 0 1 0.448 1 1 c 0 0.552 -0.448 1 -1 1 c -0.552 0 -1 -0.448 -1 -1 c 0 -0.552 0.448 -1 1 -1 z m 10 0 c 0.552 0 1 0.448 1 1 c 0 0.552 -0.448 1 -1 1 c -0.552 0 -1 -0.448 -1 -1 c 0 -0.552 0.448 -1 1 -1 z m -10 6 l 10 0 c 0.554 0 1 0.446 1 1 c 0 0.554 -0.446 1 -1 1 l -10 0 c -0.554 0 -1 -0.446 -1 -1 c 0 -0.554 0.446 -1 1 -1 z" transform="translate(0,988.3622)" style="fill:#fff8e1;fill-opacity:1"/>
  <path d="m 2 1035.03 0 2.667 c 0 3.693 2.909 6.667 6.522 6.667 l 46.957 0 c 3.613 0 6.522 -2.973 6.522 -6.667 l 0 -2.667 c 0 3.693 -2.909 7.333 -6.522 7.333 l -46.957 0 c -3.613 0 -6.522 -3.64 -6.522 -7.333 z" style="fill:#000;opacity:0.15;fill-opacity:1;stroke:none"/>
 </g>
</svg>
